packages/katcn/src/icons/svg/userAdd-solid.svg

<svg width="24" height="25" viewBox="0 0 24 25" fill="none" xmlns="http://www.w3.org/2000/svg">
<path d="M12.4 22.176C12.2 21.876 12 21.676 11.9 21.376C11.4 20.476 11.2 19.476 11.2 18.476C11.2 16.976 11.8 15.576 12.7 14.476C12.9 14.276 13 14.076 13.2 13.976C13.2 13.876 13.7 13.576 14 13.376C15.8 12.276 16.9 10.276 16.7 8.17605C16.6 7.27605 16.3 6.37605 15.9 5.77605C15.1 4.47605 13.8 3.47605 12.2 3.17605C8.59999 2.47605 5.39999 5.17605 5.39999 8.67605C5.39999 10.576 6.29998 12.176 7.69999 13.176C5.19999 14.076 3.19999 15.976 2.09999 18.476C1.69999 19.476 1.79999 20.576 2.39999 21.476C3.19999 22.376 4.19999 22.976 5.39999 22.976H13.2C12.9 22.676 12.6 22.476 12.4 22.176Z" fill="black"/>
<path d="M17.4 13.7761C17 13.7761 16.6 13.8761 16.2 13.9761C15.9 14.0761 15.5 14.1761 15.2 14.3761C14.9 14.4761 14.7 14.6761 14.4 14.8761C13.4 15.6761 12.8 16.9761 12.8 18.3761C12.8 19.4761 13.2 20.4761 13.8 21.2761C14.1 21.5761 14.4 21.8761 14.7 22.0761C15.4 22.5761 16.2 22.8761 17 22.8761C17.1 22.8761 17.2 22.8761 17.3 22.8761C19.8 22.8761 21.9 20.7761 21.9 18.2761C22 15.8761 19.9 13.7761 17.4 13.7761Z" fill="black"/>
<path d="M19.7 17.5761H18.3V16.1761C18.3 15.6761 17.9 15.3761 17.5 15.3761C17.1 15.3761 16.7 15.7761 16.7 16.1761V17.5761H15.3C14.8 17.5761 14.5 17.9761 14.5 18.3761C14.5 18.8761 14.9 19.1761 15.3 19.1761H16.7V20.5761C16.7 21.0761 17.1 21.3761 17.5 21.3761C17.9 21.3761 18.3 20.9761 18.3 20.5761V19.1761H19.7C20.2 19.1761 20.5 18.7761 20.5 18.3761C20.5 17.9761 20.1 17.5761 19.7 17.5761Z" fill="white"/>
</svg>

<svg xmlns="http://www.w3.org/2000/svg" fill="none" viewBox="0 0 24 25"><path fill="#000" d="M12.4 22.176c-.2-.3-.4-.5-.5-.8-.5-.9-.7-1.9-.7-2.9 0-1.5.6-2.9 1.5-4 .2-.2.3-.4.5-.5 0-.1.5-.4.8-.6 1.8-1.1 2.9-3.1 2.7-5.2-.1-.9-.4-1.8-.8-2.4-.8-1.3-2.1-2.3-3.7-2.6-3.6-.7-6.8 2-6.8 5.5 0 1.9.9 3.5 2.3 4.5-2.5.9-4.5 2.8-5.6 5.3-.4 1-.3 2.1.3 3 .8.9 1.8 1.5 3 1.5h7.8c-.3-.3-.6-.5-.8-.8"/><path fill="#000" d="M17.4 13.776c-.4 0-.8.1-1.2.2-.3.1-.7.2-1 .4-.3.1-.5.3-.8.5-1 .8-1.6 2.1-1.6 3.5 0 1.1.4 2.1 1 2.9.3.3.6.6.9.8.7.5 1.5.8 2.3.8h.3c2.5 0 4.6-2.1 4.6-4.6.1-2.4-2-4.5-4.5-4.5"/><path fill="#fff" d="M19.7 17.576h-1.4v-1.4c0-.5-.4-.8-.8-.8s-.8.4-.8.8v1.4h-1.4c-.5 0-.8.4-.8.8 0 .5.4.8.8.8h1.4v1.4c0 .5.4.8.8.8s.8-.4.8-.8v-1.4h1.4c.5 0 .8-.4.8-.8s-.4-.8-.8-.8"/></svg>
